usr/share/icons/big-icons/symbolic/actions/flash.svg

<svg xmlns="http://www.w3.org/2000/svg" viewBox="0 0 16 16">
<defs id="defs3051">
<style id="current-color-scheme" type="text/css">
.ColorScheme-Text{color:#fcfcfc}
</style>
</defs>
<path d="M3 2v3H2v9h12V5h-1V2zm1 1h8v2H4zM3 6h10v7H3zm4 1v5l3-2.5z" class="ColorScheme-Text" style="fill:currentColor;fill-opacity:1;stroke:none"/>
</svg>

<svg xmlns="http://www.w3.org/2000/svg" viewBox="0 0 16 16">
  <defs id="defs3051">
    <style type="text/css" id="current-color-scheme">
      .ColorScheme-Text {
        color:#eff0f1;
      }
      </style>
  </defs>
 <path style="fill:currentColor;fill-opacity:1;stroke:none" 
       d="M 3 2 L 3 3 L 3 5 L 2 5 L 2 14 L 14 14 L 14 5 L 13 5 L 13 3 L 13 2 L 3 2 z M 4 3 L 12 3 L 12 5 L 4 5 L 4 3 z M 3 6 L 13 6 L 13 13 L 3 13 L 3 6 z M 7 7 L 7 12 L 10 9.5 L 7 7 z "
     class="ColorScheme-Text"
     />
</svg>
